!!!OTL: WEN HYR EN PUT MIT BONEN STEIT
!!!ARE: Europa, Mitteleuropa, Deutschland, Niederdeutsch
!!!SCT: E1012
!!!YEM: Copyright 1995, estate of Helmut Schaffrath.
**kern
*ICvox
*Ivox
*M2/4
*k[f#]
*G:
{8d
=1
8d
8g
8g
8g
=2
8f#
8a
8a}
{8a
=3
8cc
8a
8g
8a
=4
4b
8r}
{8b
=5
8cc
8a
8a
8a
=6
8b
8g
8g}
{8g
=7
8b
8d
8e
8f#
=8
4g
8r}
{8b
=9
8a
8cc
8cc
8ee
=10
8ee
8dd
8dd}
{8b
=11
8a
8cc
8cc
8ee
=12
4.dd}
{8b
=13
8cc
8a
8a
8a
=14
8b
8g
8g}
{8g
=15
8b
8d
8e
8f#
=16
4g
8r}
==
!!!AGN: Tanz - Lied
!!!ONB: ESAC (Essen Associative Code) Database: ERK3
!!!AMT: simple duple
!!!AIN: vox
!!!EED: Helmut Schaffrath
!!!EEV: 1.0
*-
